X: 312
M: C
L: 1/8
K: G
|:\
d2d>d d2c2 | B2B>B B2A2 |\
(G3A/B/) (A3B/c/) | B2B>B B2A>B |\
c2B2 d2cB | (c3d/e/) d2c2 |
(3(BAB) (3(cBA) G2TA2 | G>GG>G G4 :|\
|:\
d2A>A A2B2 | A>GA>B A2B2 |\
c2B2 A2G2 | A2A>A A2B>c |\
d2Bc d2ec |
d2Bc d2ec |\
d>Bc>A (3(BAG) (3(dcB) | TB2A>A A2D2 |\
(3(dgf) (3(dcB) B2TA2 | G2G>G G4 :|

